X:40
T:{\AA}kerbyst{\aa}let
R:sl-polska
C:efter Per Hellstedt
A:Uppland
Z:id:hn-sp-40
M:3/4
L:1/16
K:G
g2z2 d3c BcBA|GABc d2de d2fa|c'2a2 b2g2 agfe|d3f afdf a2ab|
c'2c'a bd'bg a2a2|d3f afdf a2ab|c'2c'a bd'bg a2a2|dfaf g3(3a/g/f/ g4:|
g4 Pb2gb d'4|d'3Pb gbd'b c'4-|c'afa d2c'2 c'/d'/c'/b/c'2|b2d'b gbd'b g4|
Pb2gb d'4 d'4|d'3Pb gbd'b c'4-|c'afa d2c'2 c'/d'/c'/b/c'2|b2d'b gbd'b g3d||
|:d<gbg d<gbg d<gbg|d<faf d<faf d<faf|d<gbg d<gbg d<gbg|d<faf d<faf d<faf|
d3Pc BGBd gfgb|bafa Pa2g2 g/a/g/f/g2:|

